X:1
T:Hark, the Sounds Melodious Stealing
T:Hark, the Sounds Melodious Stealing
T:Anonymous, before 1913
T:Public Domain Courtesy of the Cyber Hymnal™
T:Public Domain Courtesy of the Cyber Hymnal™
T:Public Domain Courtesy of the Cyber Hymnal™
C:Anonymous, before 1913
Z:Public Domain
Z:Courtesy of the Cyber Hymnal™
%%score ( 1 2 ) ( 3 4 )
L:1/8
Q:1/4=110
M:6/8
K:C
V:1 treble 
V:2 treble 
V:3 bass 
V:4 bass 
V:1
 [EG]2 [EG] (GG)[FB] | [Ec]2 [EG] [^DB]2 [DA] | [EG]2 [FA] [DF]2 [B,G] | [CE]2 [^DB] [EG]2 z | %4
w: 1.~Hark, the sounds * me-|lo- dious steal- ing|Thro’ the qui- et|mid- night air;|
w: 2.~Wise men tra- * veled|till they found Him,|Found a king in|Beth- le- hem!|
w: 3.~Let us lift * our|hearts and voic- es|Prince Im- man- uel’s|praise to sing;|
 [EG]2 [EG] (GA)[FB] | [Ec]2 [G^c] [Fd]2 [FA] | (cB)[=DA] ([EG][DF])[CE] | [B,D]2 [B,E] C2 z | %8
w: Sweet, se- raph- * ic|mu- sic peal- ing|O- * ver all * the|land- scape fair.|
w: King, with sheep * and|cat- tle ’round Him?|King, * with- out * a|di- a- dem?|
w: While the heav’n- * ly|host re- joic- es,|Let * us, too, * our|trib- ute bring.|
"^Quartet or Chorus" [B,D]2 [DG] [DA]2 D | [DG]2 [DA] (Bc)[Gd] | [Ge]2 [Gd] [Gc]2 [^GB] | %11
w: An- gel hosts of|bright- est glo- * ry,|Ho- ver o’er a|
w: Yes! the Prince of|Peace e- ter- * nal,|King of kings, of|
w: Heav’n- ward, now, His|star is point- * ing,|Where He sits at|
 [EA]2 E [DA]2 z | D2 [DG] [DA]2 D | [DG]2 [^FA] (Bc)[Gd] | [Ge]2 [^Gd] [Ac]2 [GB] | %15
w: low- ly bed—|Bed of Him fore-|told in sto- * ry,|Son of Man, cre-|
w: lords the Lord!|Hark! the swell- ing|choirs su- per- * nal|As they join with|
w: God’s right hand,|Un- to each His|crown ap- point- * ing,|Who be- fore His|
 [GA]2 [^FB] !fermata!G ||"^Refrain" AA | c3- [Ec]Bc | d3- [Fd]2 z | d3- [Fd]cd | e3- [Ge]2 z | %21
w: a- tion’s Head.|Sing- ing,|Glo- ry to God,|* Glo-|* ry to God,|* Glo-|
w: one ac- cord:||||||
w: throne shall stand.||||||
 e3 [=Bd]2 [Bc] | ([Af]2 [Ae]) [Ad]2 c | B3 A3 | (G3- [FG])AA | c3- [Ec]Bc | d3- [Fd]2 z | %27
w: * ry to|God * in the|high- est,|Sing- * ing, Glo-|ry to God, Glo-|* ry|
w: ||||||
w: ||||||
 d3- [Fd]cd | e3- [Ge]2 z | e3 [Ed]2 [Ec] | f3- [Ff]Bc | e3 d3 | c3- [Ec]2 z |] %33
w: * to God, Glo-|* ry|* to God|in * the high-|* est,||
w: ||||||
w: ||||||
V:2
 x3 F2 x | x6 | x6 | x6 | x3 F2 x | x6 | ^D2 x4 | x3 C2 x | x5 D | x3 D2 x | x6 | x2 E x3 | %12
 D2 x D x2 | x3 G2 x | x6 | x3 G || x2 | E2 E x3 | FFF x3 | F2 F x3 | GGG x3 | (_B2 B) x3 | x6 | %23
 (G2 G ^F2 F) | G3 x3 | E2 E x3 | FFF x3 | F2 F x3 | GGG x3 | (G2 G) x3 | F2 F x3 | (GGGGGF) | %32
 E2 F x3 |] %33
V:3
 [C,G,]2 z [D,G,]2 z | [C,G,]2 z [C,^F,]2 z | [C,G,]2 z [G,,G,]2 z | [C,G,]2 z [C,G,]2 z | %4
w: ~ ~|~ ~|~ ~|~ ~|
 [C,G,]2 z [D,G,]2 z | [C,G,]2 z [F,A,]2 z | [F,A,]2 z G,2 z | [G,,F,]2 z [C,E,]2 z | %8
w: ~ ~|~ ~|~ ~|~ ~|
 [G,,G,]2 [B,,G,] [D,^F,]2 [C,F,] | [B,,G,]2 [D,^F,] (G,A,)[G,B,] | [C,C]2 [D,B,] [E,C]2 [E,D] | %11
w: ~ ~ ~ ~|~ ~ ~ * ~|~ ~ ~ ~|
 [A,C]2 [G,^C] (D2 =C) | [G,B,]2 [G,B,] [^F,A,]2 [A,C] | [G,B,]2 [D,D] D2 [B,D] | %14
w: ~ ~ ~ *|~ ~ ~ ~|~ ~ ~ ~|
 C2 [B,E] [A,E]2 [B,E] | [CE]2 D [G,B,] || z z | [C,G,]2 [C,G,] [C,G,] z2 | %18
w: ~ ~ ~ ~|~ ~ ~||Peace on earth,|
 [G,B,][G,B,][G,B,] [G,B,]2 z | [G,B,]2 [G,B,] [G,B,] z2 | [C,C][C,C][C,C] [C,C]2 z | %21
w: good will to men!|Peace on earth,|good will to men!|
 [G,C]2 [G,C] [G,E]2 [G,E] | [F,C]2 [F,C] [^F,D]2 z | [G,D]2 [B,D] D2 [D,C] | [G,B,]4 z2 | %25
w: Peace on earth, good|will to men,|Glo- ry be to|God.|
 [C,G,]2 [C,G,] [C,G,] z2 | [G,B,][G,B,][G,B,] [G,B,]2 z | [G,B,]2 [G,B,] [G,B,] z2 | %28
w: Peace on earth,|good will to men!|Peace on earth,|
 [C,C][C,C][C,C] [C,C]2 z | [_B,C]2 [B,C] [B,C]2 [B,C] | [A,C]2 [A,C] [_A,C] z2 | %31
w: good will to men!|Peace on earth, good|will to men!|
 [G,C][G,C][G,C] [G,C][G,C][G,C] | (C2 A,) [C,G,]2 z |] %33
w: Glo- ry to God in the|high- * est!|
V:4
 x6 | x6 | x6 | x6 | x6 | x6 | x3 G,2 x | x6 | x6 | x3 G,2 x | x6 | x3 ^F,3 | x6 | x3 (G,A,) x | %14
 C2 x4 | x2 D x || x2 | x6 | x6 | x6 | x6 | x6 | x6 | x3 D2 x | x6 | x6 | x6 | x6 | x6 | x6 | x6 | %31
 x6 | C,3 x3 |] %33

